buildsupport/Graphics/pictures/svg/coat.svg

<?xml version="1.0" encoding="UTF-8"?>
<svg xmlns="http://www.w3.org/2000/svg" xmlns:xlink="http://www.w3.org/1999/xlink" width="1024pt" height="1024pt" viewBox="0 0 1024 1024" version="1.1">
<g id="surface1">
<path style="fill-rule:nonzero;fill:rgb(47.058824%,40.392157%,12.941176%);fill-opacity:1;stroke-width:0.5;stroke-linecap:butt;stroke-linejoin:miter;stroke:rgb(0%,0%,0%);stroke-opacity:1;stroke-miterlimit:4;" d="M 86.334991 17.797089 L 112.606049 17.797089 L 112.606049 32.309723 L 86.334991 32.309723 Z M 86.334991 17.797089 " transform="matrix(5.12,0,0,5.12,0,0)"/>
<path style="fill-rule:nonzero;fill:rgb(47.058824%,40.392157%,12.941176%);fill-opacity:1;stroke-width:0.5;stroke-linecap:butt;stroke-linejoin:miter;stroke:rgb(0%,0%,0%);stroke-opacity:1;stroke-miterlimit:4;" d="M 87.483978 168.370056 L 113.755035 168.370056 L 113.755035 182.88269 L 87.483978 182.88269 Z M 87.483978 168.370056 " transform="matrix(5.12,0,0,5.12,0,0)"/>
<path style="fill-rule:nonzero;fill:rgb(78.431373%,67.058824%,21.568627%);fill-opacity:1;stroke-width:0.5;stroke-linecap:butt;stroke-linejoin:miter;stroke:rgb(0%,0%,0%);stroke-opacity:1;stroke-miterlimit:4;" d="M 91.525269 32.415009 L 108.155823 32.415009 L 108.155823 169.174957 L 91.525269 169.174957 Z M 91.525269 32.415009 " transform="matrix(5.12,0,0,5.12,0,0)"/>
<path style="fill-rule:nonzero;fill:rgb(31.372549%,26.666667%,8.627451%);fill-opacity:1;stroke-width:0.5;stroke-linecap:butt;stroke-linejoin:miter;stroke:rgb(0%,0%,0%);stroke-opacity:1;stroke-miterlimit:4;" d="M 10.785675 164.050293 C 13.934326 159.459686 22.87674 157.928467 27.265167 161.353302 C 31.056976 164.313507 28.463745 175.735474 28.463745 175.735474 L 13.482666 176.934052 C 13.482666 176.934052 8.304596 167.668915 10.785675 164.04953 Z M 10.785675 164.050293 " transform="matrix(5.12,0,0,5.12,0,0)"/>
<path style="fill-rule:nonzero;fill:rgb(83.137255%,39.215686%,0%);fill-opacity:1;stroke-width:1;stroke-linecap:butt;stroke-linejoin:miter;stroke:rgb(0%,0%,0%);stroke-opacity:1;stroke-miterlimit:4;" d="M 48.877716 65.660858 L 48.001099 61.271667 C 48.001099 61.271667 44.51828 64.026642 43.410492 65.894318 C 38.632202 73.953247 37.661743 83.744812 35.415649 92.842102 C 33.901215 98.975372 32.517242 105.164337 31.729126 111.431885 C 29.808807 126.711273 32.290649 142.472839 29.218292 157.563019 C 28.894043 159.153748 27.560425 162.141418 27.560425 162.141418 L 9.602356 164.257812 C 9.602356 164.257812 6.725311 160.784912 6.1203 158.677673 C 1.123047 141.277313 3.248596 122.254944 6.044006 104.368591 C 7.027435 98.075867 10.04715 92.273712 11.899567 86.179352 C 13.175964 81.980896 14.083099 77.667999 15.522766 73.521423 C 17.405701 68.099213 19.176483 62.553406 22.064209 57.593536 C 26.065826 50.717926 30.957031 44.225311 36.781311 38.806915 C 40.013885 35.798645 43.683624 33.081055 47.770691 31.410217 C 55.924225 28.078461 73.750305 26.587677 73.750305 26.587677 L 91.516876 32.103729 L 95.711517 168.893433 L 54.870605 169.193268 C 54.870605 169.193268 48.325348 166.000366 46.645355 163.009644 C 44.309235 158.852386 45.378113 153.538513 45.249176 148.771667 C 44.499207 121.052551 48.878479 65.661621 48.878479 65.661621 Z M 48.877716 65.660858 " transform="matrix(5.12,0,0,5.12,0,0)"/>
<path style="fill-rule:nonzero;fill:rgb(31.372549%,26.666667%,8.627451%);fill-opacity:1;stroke-width:0.5;stroke-linecap:butt;stroke-linejoin:miter;stroke:rgb(0%,0%,0%);stroke-opacity:1;stroke-miterlimit:4;" d="M 189.510345 163.749695 C 186.361694 159.159851 177.419281 157.628632 173.030853 161.053467 C 169.239044 164.012909 171.832275 175.435638 171.832275 175.435638 L 186.813354 176.634216 C 186.813354 176.634216 191.991425 167.368317 189.510345 163.749695 Z M 189.510345 163.749695 " transform="matrix(5.12,0,0,5.12,0,0)"/>
<path style="fill-rule:nonzero;fill:rgb(83.137255%,39.215686%,0%);fill-opacity:1;stroke-width:1;stroke-linecap:butt;stroke-linejoin:miter;stroke:rgb(0%,0%,0%);stroke-opacity:1;stroke-miterlimit:4;" d="M 151.210022 65.599823 L 152.087402 61.210632 L 156.677246 65.833282 C 156.677246 65.833282 162.426758 83.683777 164.672852 92.781067 C 166.187286 98.914337 167.570496 105.103302 168.358612 111.37085 C 170.279694 126.650238 167.797089 142.411804 170.870209 157.501984 C 171.193695 159.092712 172.528076 162.080383 172.528076 162.080383 L 190.486145 164.196777 C 190.486145 164.196777 193.36319 160.723877 193.968201 158.616638 C 198.965454 141.216278 196.839905 122.193146 194.044495 104.307556 C 193.061066 98.014069 190.041351 92.212677 188.188934 86.118317 C 186.911774 81.919861 186.004639 77.606964 184.565735 73.460388 C 182.6828 68.038177 180.911255 62.492371 178.024292 57.532501 C 174.022675 50.656891 169.13147 44.164276 163.30719 38.74588 C 160.074615 35.73761 156.404877 33.02002 152.317047 31.349182 C 144.164276 28.017426 126.338196 26.526642 126.338196 26.526642 L 108.571625 32.041931 L 104.376984 168.832397 L 145.217896 169.132233 C 145.217896 169.132233 151.76239 165.938568 153.443146 162.948608 C 155.779266 158.791351 154.710388 153.477478 154.839325 148.710632 C 155.589294 120.991516 151.210022 65.600586 151.210022 65.600586 Z M 151.210022 65.599823 " transform="matrix(5.12,0,0,5.12,0,0)"/>
<path style="fill-rule:nonzero;fill:rgb(31.372549%,26.666667%,8.627451%);fill-opacity:1;stroke-width:0.5;stroke-linecap:butt;stroke-linejoin:miter;stroke:rgb(0%,0%,0%);stroke-opacity:1;stroke-miterlimit:4;" d="M 78.552246 16.789246 L 89.926147 16.895294 L 91.938782 32.148743 L 74.102783 26.004791 L 74.560547 22.764587 L 75.922394 18.978119 Z M 78.552246 16.789246 " transform="matrix(5.12,0,0,5.12,0,0)"/>
<path style="fill-rule:nonzero;fill:rgb(31.372549%,26.666667%,8.627451%);fill-opacity:1;stroke-width:0.5;stroke-linecap:butt;stroke-linejoin:miter;stroke:rgb(0%,0%,0%);stroke-opacity:1;stroke-miterlimit:4;" d="M 121.73996 16.896057 L 110.366058 17.002106 L 108.353424 32.255554 L 126.189423 26.111603 L 125.731659 22.871399 L 124.369049 19.08493 Z M 121.73996 16.896057 " transform="matrix(5.12,0,0,5.12,0,0)"/>
<path style="fill-rule:nonzero;fill:rgb(31.372549%,26.666667%,8.627451%);fill-opacity:1;stroke-width:0.53149;stroke-linecap:butt;stroke-linejoin:miter;stroke:rgb(0%,0%,0%);stroke-opacity:1;stroke-miterlimit:4;" d="M 55.744934 169.450378 L 95.863342 169.450378 L 95.863342 182.901001 L 55.744934 182.901001 Z M 55.744934 169.450378 " transform="matrix(5.12,0,0,5.12,0,0)"/>
<path style="fill-rule:nonzero;fill:rgb(31.372549%,26.666667%,8.627451%);fill-opacity:1;stroke-width:0.53726;stroke-linecap:butt;stroke-linejoin:miter;stroke:rgb(0%,0%,0%);stroke-opacity:1;stroke-miterlimit:4;" d="M 104.180145 169.409943 L 145.191193 169.409943 L 145.191193 182.855988 L 104.180145 182.855988 Z M 104.180145 169.409943 " transform="matrix(5.12,0,0,5.12,0,0)"/>
</g>
</svg>

<?xml version="1.0" encoding="UTF-8" standalone="no"?>
<!-- Created with Inkscape (http://www.inkscape.org/) -->
<svg
    xmlns:inkscape="http://www.inkscape.org/namespaces/inkscape"
    xmlns:rdf="http://www.w3.org/1999/02/22-rdf-syntax-ns#"
    xmlns="http://www.w3.org/2000/svg"
    xmlns:xlink="http://www.w3.org/1999/xlink"
    xmlns:ns1="http://sozi.baierouge.fr"
    xmlns:cc="http://creativecommons.org/ns#"
    xmlns:dc="http://purl.org/dc/elements/1.1/"
    xmlns:sodipodi="http://sodipodi.sourceforge.net/DTD/sodipodi-0.dtd"
    id="svg2"
    sodipodi:docname="ie1_pb_jacket.jpg"
    viewBox="0 0 200 200"
    version="1.1"
    inkscape:version="0.48.4 r9939"
  >
  <sodipodi:namedview
      id="namedview4"
      bordercolor="#666666"
      inkscape:pageshadow="2"
      guidetolerance="10"
      pagecolor="#ffffff"
      gridtolerance="10"
      inkscape:window-maximized="1"
      inkscape:zoom="2.36"
      objecttolerance="10"
      borderopacity="1"
      inkscape:current-layer="svg2"
      inkscape:cx="155.39472"
      inkscape:cy="116.09866"
      inkscape:window-y="-8"
      inkscape:window-x="-8"
      inkscape:window-width="1366"
      showgrid="false"
      inkscape:pageopacity="0"
      inkscape:window-height="706"
  />
  <g
      id="g3860"
    >
    <rect
        id="rect3797"
        style="stroke:#000000;stroke-width:.5;fill:#786721"
        height="14.513"
        width="26.271"
        y="17.797"
        x="86.335"
    />
    <rect
        id="rect3797-0"
        style="stroke:#000000;stroke-width:.5;fill:#786721"
        height="14.513"
        width="26.271"
        y="168.37"
        x="87.484"
    />
    <rect
        id="rect3799"
        style="stroke:#000000;stroke-width:.5;fill:#c8ab37"
        height="136.76"
        width="16.631"
        y="32.415"
        x="91.525"
    />
    <path
        id="rect3801"
        d="m10.786 164.05c3.1481-4.5903 12.091-6.1213 16.479-2.6966 3.7922 2.9598 1.1985 14.382 1.1985 14.382l-14.981 1.1985s-5.1782-9.2653-2.6966-12.884z"
        sodipodi:nodetypes="aacca"
        style="stroke:#000000;stroke-width:.5;fill:#504416"
        inkscape:connector-curvature="0"
    />
    <path
        id="rect2987"
        d="m48.878 65.661-0.877-4.389s-3.4829 2.7543-4.5903 4.6221c-4.7784 8.0595-5.7489 17.851-7.995 26.948-1.5144 6.1331-2.8982 12.322-3.6862 18.59-1.921 15.279 0.56145 31.041-2.5114 46.131-0.32386 1.5904-1.6577 4.5783-1.6577 4.5783l-17.958 2.1164s-2.8771-3.4728-3.4823-5.5802c-4.997-17.4-2.8715-36.423-0.076212-54.309 0.9835-6.2931 4.0031-12.095 5.8558-18.189 1.2765-4.1989 2.1835-8.5119 3.6232-12.658 1.8828-5.4221 3.6539-10.968 6.5411-15.928 4.0016-6.8753 8.893-13.368 14.717-18.787 3.2329-3.0077 6.9024-5.7258 10.99-7.3962 8.153-3.3319 25.979-4.8226 25.979-4.8226l17.767 5.5156 4.1947 136.79-40.841 0.29962s-6.545-3.193-8.2254-6.1834c-2.3362-4.1573-1.2671-9.4709-1.3961-14.238-0.75005-27.719 3.6291-83.11 3.6291-83.11z"
        sodipodi:nodetypes="ccaaaaccaaaaaaaccccaac"
        style="stroke:#000000;fill:#d46400"
        inkscape:connector-curvature="0"
    />
    <path
        id="rect3801-4"
        d="m189.51 163.75c-3.1481-4.5903-12.091-6.1213-16.479-2.6966-3.7922 2.9598-1.1985 14.382-1.1985 14.382l14.981 1.1985s5.1782-9.2653 2.6966-12.884z"
        sodipodi:nodetypes="aacca"
        style="stroke:#000000;stroke-width:.5;fill:#504416"
        inkscape:connector-curvature="0"
    />
    <path
        id="rect2987-1"
        d="m151.21 65.6 0.87731-4.3891 4.5903 4.6221s5.7489 17.851 7.995 26.948c1.5144 6.1331 2.8982 12.322 3.6862 18.59 1.921 15.279-0.56145 31.041 2.5114 46.131 0.32386 1.5904 1.6577 4.5783 1.6577 4.5783l17.958 2.1164s2.8771-3.4728 3.4823-5.5802c4.997-17.4 2.8715-36.423 0.0762-54.309-0.9835-6.2931-4.0031-12.095-5.8558-18.189-1.2765-4.1989-2.1836-8.5119-3.6232-12.658-1.8828-5.422-3.6539-10.968-6.5411-15.928-4.0016-6.8753-8.893-13.368-14.717-18.787-3.2329-3.0077-6.9024-5.7258-10.99-7.3962-8.153-3.3319-25.979-4.8226-25.979-4.8226l-17.767 5.5156-4.1947 136.79 40.841 0.29962s6.545-3.193 8.2254-6.1834c2.3362-4.1573 1.2671-9.4709 1.3961-14.238 0.75006-27.719-3.6291-83.11-3.6291-83.11z"
        sodipodi:nodetypes="cccaaaccaaaaaaaccccaac"
        style="stroke:#000000;fill:#d46400"
        inkscape:connector-curvature="0"
    />
    <path
        id="rect3776"
        d="m78.552 16.789 11.374 0.10593 2.0127 15.254-17.836-6.1441 0.45756-3.2403 1.3625-3.7865z"
        sodipodi:nodetypes="ccccccc"
        style="stroke:#000000;stroke-width:.5;fill:#504416"
        inkscape:connector-curvature="0"
    />
    <path
        id="rect3776-7"
        d="m121.74 16.896-11.374 0.10593-2.0127 15.254 17.836-6.1441-0.45756-3.2403-1.3625-3.7865z"
        sodipodi:nodetypes="ccccccc"
        style="stroke:#000000;stroke-width:.5;fill:#504416"
        inkscape:connector-curvature="0"
    />
    <rect
        id="rect3840"
        style="stroke:#000000;stroke-width:.53149;fill:#504416"
        height="13.451"
        width="40.118"
        y="169.45"
        x="55.745"
    />
    <rect
        id="rect3840-9"
        style="stroke:#000000;stroke-width:.53726;fill:#504416"
        height="13.446"
        width="41.011"
        y="169.41"
        x="104.18"
    />
  </g
  >
  <metadata
    >
    <rdf:RDF
      >
      <cc:Work
        >
        <dc:format
          >image/svg+xml</dc:format
        >
        <dc:type
            rdf:resource="http://purl.org/dc/dcmitype/StillImage"
        />
        <cc:license
            rdf:resource="http://creativecommons.org/licenses/publicdomain/"
        />
        <dc:publisher
          >
          <cc:Agent
              rdf:about="http://openclipart.org/"
            >
            <dc:title
              >Openclipart</dc:title
            >
          </cc:Agent
          >
        </dc:publisher
        >
      </cc:Work
      >
      <cc:License
          rdf:about="http://creativecommons.org/licenses/publicdomain/"
        >
        <cc:permits
            rdf:resource="http://creativecommons.org/ns#Reproduction"
        />
        <cc:permits
            rdf:resource="http://creativecommons.org/ns#Distribution"
        />
        <cc:permits
            rdf:resource="http://creativecommons.org/ns#DerivativeWorks"
        />
      </cc:License
      >
    </rdf:RDF
    >
  </metadata
  >
</svg
>
